X:1
T:Morpeth Rant
M:4/4
L:1/4
K:D
A|"D" dA/2G/2 F/2D/2F/2A/2|"G" B/2G/2B/2d/2 "A" c/2A/2c/2e/2|"D" f f/2d/2 "Em" g/2f/2e/2d/2|"A" ce"A7" eA|!
"D" dA/2G/2 F/2D/2F/2A/2|"G" B/2G/2B/2d/2 "A" c/2A/2c/2e/2|"D" f f/2d/2 "A7" g/2f/2e/2d/2|"D" Ad d:|!
A|"D" d/2f/2a/2f/2 d/2f/2a/2f/2|"Em" g/2f/2e/2f/2 gg|"A7" g/2f/2e/2d/2 c/2d/2e/2g/2|"D" f/2e/2d/e/2 f f|!
"D" d/2f/2a/2f/2 d/2f/2a/2f/2|"Em" g/2f/2e/2f/2 gg|"A7" g/2f/2e/2d/2 c/2e/2a/2g/2|"D" fd d:|
